X: 10643
M: 3/4
L: 1/8
K: G
({A}G2F2)G2 | (B2d2)G2 |\
(c2e2)G2 | (d4B2) |\
(g4e2) | (d2B2)G2 |\
{A}GFGABG | .A2.F2.D2 |\
{A}G2F2G2 | (B2d2)G2 |
{d}cBcdec | (d4B2) |\
(g4e2) | d2B2G2 |\
{A}GFGBAF | G4 |:\
{B}A^GABAB | (c4A2) |\
{B}A^GABAB | (c4A2) |\
|: (GA) |\
.B2.B2.B2 | e4g2 |\
{g}f2e2^d2 | e2g2B2 |\
.A2.A2.A2 | (d4f2) |
({g}e2d2)^c2 | d4(ef) |\
(g4e2) | d4B2 |\
{A}GFGABG | A2F2D2 |\
(g4e2) | (d4B2) |\
{A}GFGBAF | G4 :|



